X:5
T:Ringlender etter Nils Jonsa
R:ringlender
D:
Z:Smaaviltlaget, paa Skuddhold, Track 2
M:4/4
L:1/8
Q:1/2=75
K:D
|: "A"c>d e<g "D"fe d2 | "D"F>G A<B "D/A"A2 G2 |
   "D"F>E F<G "D/A"A>B A<F | "A/E"G2 F2 "A"E4 |
   "A"c>d e<g "D"fe d2 | "D"F>G A<B "A"A2 G2 |
   "D"F>E F<G "D/A"A>B A<F | "A"G2 EC "D"D4 :|
|: "D"Az g2 "A"f4 | "A/E"efec "D"d4 |
   "D"dc df "D/A"a>b a<f | "A/E"g2 f2 "A"e4 |
   "A"Az g2 "D"f4 | "A"efec "D"d4 |
   "D"dc df "A"a>b a<c | "D"d2 "A"{e}dc "D"d4 :|
|: "D"A2 f2 "D/A"A2 f2 | "D"f2 ef "A"e4 |
   "A/E"Ac e2 "A"Ac ef | "A/E"g2 fe "D"fz d2 |
   "D"A2 f2 "D/A"A2 f2 | "D"f2 ef "A"e4 |
   "A/E"c>d e<f "A"g>e c<e | "D"d2 "A"{e}dc "D"d4 :|
